X:1873
L:1/8
Q:1/8=280
M:6/8
K:D
 A | d2 d ceA | dff f2 g | afd dcd | e-e/d/e/f/ gfe | d2 d ceA | dff f2 g | afd Bgf | edc d2 :| g | 
 fdf fga | fdd dcd | eAA fAA | g-g/f/g/a/ gfe | d2 d ceA | dff f2 g | afd Bgf | edc d2 :|

